!!!OTL: Dix
!!!COL: Hymnal 1982
**kern	**text	**text	**text	**text	**text
*clefG2	*	*	*	*	*
*k[f#]	*	*	*	*	*
*M4/4	*	*	*	*	*
*G:	*	*	*	*	*
=1	=1	=1	=1	=1	=1
4g	As	with	As	Ho-	In
8f#L	with	joy-	they	ly	the
8gJ	.	.	.	.	.
4a	glad-	ful	of	Je-	heaven-
4g	ness	steps	fered	sus!	ly
=2	=2	=2	=2	=2	=2
4cc	men	they	gifts	ev-	coun-
4cc	of	sped	most	ery	try
2b;	old	to	rare	day	bright,
=3	=3	=3	=3	=3	=3
4e	did	that	at	keep	need
4f#	the	low-	that	us	they
4g	guid-	ly	man-	in	no
4e	ing	man-	ger	the	cre-
=4	=4	=4	=4	=4	=4
4d	star	ger	rude	nar-	a-
4d	be	bed;	and	row-	ted
2d	hold;	there	bare;	way;	light;
=5	=5	=5	=5	=5	=5
4g	as	to	so	and	thou
8f#L	with	bend	may	when	its
8gJ	.	.	.	.	.
4a	joy	the	we	ear-	light,
4g	they	knee	with	thly	its
=6	=6	=6	=6	=6	=6
4cc	hailed	be	ho-	things	joy,
4cc	its	fore	ly	are	its
2b;	light,	him	joy,	past,	crown,
=7	=7	=7	=7	=7	=7
4e	lead-	whom	pure	bring	thou
4f#	ing	heav-	and	our	its
4g	on-	en	free	ran-	sun
4e	ward,	and	from	somed	which
=8	=8	=8	=8	=8	=8
4d	beam-	earth	sin's	souls	goes
4d	ing	a-	al-	at	not
2d	bright;	dore;	loy,	last	down:
=9	=9	=9	=9	=9	=9
4b	so	so	all	where	there
4a	most	may	our	they	for
4g	gra-	we	cost-	need	ev-
4b	cious	with	liest	no	er
=10	=10	=10	=10	=10	=10
4.dd	Lord,	will-	trea-	star	may
8cc	may	ing	sures	to	we
2b;	we	feet	bring,	guide,	sing
=11	=11	=11	=11	=11	=11
4e	ev-	ev-	Christ!	where	al-
4f#	er	er	to	no	le-
4g	more	seek	thee,	clouds	lu-
4cc	be	the	our	thy	ias
=12	=12	=12	=12	=12	=12
4b	led	mer-	heaven-	glo-	to
4a	to	cy	ly	ry	our
2g;	thee.	seat.	King.	hide.	King.
==	==	==	==	==	==
*-	*-	*-	*-	*-	*
